X: 7729
T: Colonel McBain
R: reel
M: 4/4
K: Cmajor
|dc|:Bdgd BGGB|Acfd AFFc|Bdgd BGGB|(3ABc Fc AGGc|
Bdgd BGGB|Acfd AFFc|[_BD]2 BA Bdfd|1 cA^F=B AGGc:|cA^F=B AGGA|
|:[_BG]2 {Bc}BA [BD]2 GA|_BABd cBAB|G^fga gfga|=bg{b}a^f defd|
gag^f d^cde|=fdc_B AF{G} (3FEF|Gg^fg dg=bg|^fdcA AGGc:|

